X:27
T:Twenty-Ninth of May,The. JClw.27
T:When the King Enjoys His Own Again,aka. JClw.27
M:4/4
L:1/8
Q:1/4=160
S:J.Clews MS,Stoke-upon-Tern,Shrops.1832
A:N. Shropshire
Z:Neil Brookes 2006
K:D
A2A2d2d2|efge f2 ef|g2B2c2d2|f2e2d4::!
f2|edcd e2ef|edcde2ef|g2B2c2d2|c2B2A2fg|!
abag f2 ed|efge f2 ef|g2B2c2d2|f2e2d4:|

